X: 16
T:Disconsolate Sailor. JC.016
M:4/4
L:1/16
Q:220
S:John Clare,Poet,Helpston. (1793-1864)
R:Air
O:England
A:Northamptonshire
N:b7 is in TS5/
Z:vmp.P. Headford
K:D
e3d|c4 e3c A4 c3A|F3A G3B A4 c3^d|\
e4=d3e G4 (BA)(GF)|E4z4z4E4|!
A4 c2e2 (d2f2)B2d2|(G2B2) E2D2 D2C2D3E|\
F3G (A2f2) (ec3)(e2d2)(c2B2)|A12:|]
W:Song text exists. See Deacon.|
